icon-themes/breeze_svg/cmd/sc_changepolygon.svg

<svg viewBox="0 0 16 16" xmlns="http://www.w3.org/2000/svg"><path d="m13 2-11 4 4.375 7h1.1875l-4.0625-6.46875 7.90625-2.90625-1.34375 4.0625-.125.3125h1.0625z" fill="#4d4d4d"/><path d="m11.5 9c-1.385 0-2.5 1.114978-2.5 2.5 0 .433424.120005.832826.3125 1.1875l.75-.75c-.041025-.1371-.0625-.286675-.0625-.4375 0-.830998.669-1.5 1.5-1.5.150791 0 .300406.022.4375.0625l.75-.75c-.354645-.1923745-.754073-.3125-1.1875-.3125zm2.1875 1.3125-.75.75c.041033.1371.0625.286675.0625.4375 0 .830998-.669 1.5-1.5 1.5-.150791 0-.300406-.022-.4375-.0625l-.75.75c.354645.192375.754073.3125 1.1875.3125 1.385 0 2.5-1.114978 2.5-2.5 0-.433424-.120005-.832826-.3125-1.1875z" fill="#1d99f3"/></svg>

<svg xmlns="http://www.w3.org/2000/svg" viewBox="0 0 16 16">
 <path 
     style="fill:#4d4d4d" 
     d="M 13 2 L 2 6 L 6.375 13 L 7.5625 13 L 3.5 6.53125 L 11.40625 3.625 L 10.0625 7.6875 L 9.9375 8 L 11 8 L 13 2 z "
     />
 <path 
     style="fill:#1d99f3" 
     d="M 11.5 9 C 10.115 9 9 10.114978 9 11.5 C 9 11.933424 9.120005 12.332826 9.3125 12.6875 L 10.0625 11.9375 C 10.021475 11.8004 10 11.650825 10 11.5 C 10 10.669002 10.669 10 11.5 10 C 11.650791 10 11.800406 10.022 11.9375 10.0625 L 12.6875 9.3125 C 12.332855 9.1201255 11.933427 9 11.5 9 z M 13.6875 10.3125 L 12.9375 11.0625 C 12.978533 11.1996 13 11.349175 13 11.5 C 13 12.330998 12.331 13 11.5 13 C 11.349209 13 11.199594 12.978 11.0625 12.9375 L 10.3125 13.6875 C 10.667145 13.879875 11.066573 14 11.5 14 C 12.885 14 14 12.885022 14 11.5 C 14 11.066576 13.879995 10.667174 13.6875 10.3125 z "
     />
 </svg>
